svg/700/rounded/forms_add_on-fill.svg

<svg xmlns="http://www.w3.org/2000/svg" width="48" height="48" viewBox="0 -960 960 960"><path d="M679.825-114Q660-114 646.5-127.625 633-141.25 633-161v-73h-73q-19.75 0-33.375-13.675Q513-261.351 513-281.175 513-301 526.625-314.5 540.25-328 560-328h73v-73q0-19.75 13.675-33.375Q660.351-448 680.175-448 700-448 713.5-434.375 727-420.75 727-401v73h73q19.75 0 33.375 13.675Q847-300.649 847-280.825 847-261 833.375-247.5 819.75-234 800-234h-73v73q0 19.75-13.675 33.375Q699.649-114 679.825-114ZM299-188q-20.75 0-34.375-13.675Q251-215.351 251-236.175 251-256 264.625-269.5 278.25-283 299-283h96q19.75 0 33.375 13.675Q442-255.649 442-235.825 442-215 428.375-201.5 414.75-188 395-188h-96Zm0-190q-20.75 0-34.375-13.675Q251-405.351 251-425.175 251-445 264.625-458.5 278.25-472 299-472h96q19.75 0 33.375 13.675Q442-444.649 442-424.825 442-405 428.375-391.5 414.75-378 395-378h-96Zm0-189q-20.75 0-34.375-13.675Q251-594.351 251-614.175 251-634 264.625-648 278.25-662 299-662h437q19.75 0 33.375 14.175 13.625 14.176 13.625 34Q783-594 769.375-580.5 755.75-567 736-567H299Zm0-190q-20.75 0-34.375-13.675Q251-784.351 251-805.175 251-825 264.625-838.5 278.25-852 299-852h437q19.75 0 33.375 13.675Q783-824.649 783-804.825 783-784 769.375-770.5 755.75-757 736-757H299Zm-155.175 0Q124-757 110.5-770.675 97-784.351 97-805.175 97-825 110.675-838.5q13.676-13.5 33.5-13.5Q164-852 177.5-838.325q13.5 13.676 13.5 33.5Q191-784 177.325-770.5q-13.676 13.5-33.5 13.5Zm0 190Q124-567 110.5-580.675 97-594.351 97-614.175 97-634 110.675-648q13.676-14 33.5-14Q164-662 177.5-647.825q13.5 14.176 13.5 34Q191-594 177.325-580.5q-13.676 13.5-33.5 13.5Zm0 189Q124-378 110.5-391.675 97-405.351 97-425.175 97-445 110.675-458.5q13.676-13.5 33.5-13.5Q164-472 177.5-458.325q13.5 13.676 13.5 33.5Q191-405 177.325-391.5q-13.676 13.5-33.5 13.5Zm0 190Q124-188 110.5-201.675 97-215.351 97-236.175 97-256 110.675-269.5q13.676-13.5 33.5-13.5Q164-283 177.5-269.325q13.5 13.676 13.5 33.5Q191-215 177.325-201.5q-13.676 13.5-33.5 13.5Z"/></svg>

<svg xmlns="http://www.w3.org/2000/svg" width="48" height="48" viewBox="0 -960 960 960"><path d="M679.82-114q-19.82 0-33.32-13.63Q633-141.25 633-161v-73h-73q-19.75 0-33.37-13.68Q513-261.35 513-281.18q0-19.82 13.63-33.32Q540.25-328 560-328h73v-73q0-19.75 13.68-33.38Q660.35-448 680.18-448q19.82 0 33.32 13.62Q727-420.75 727-401v73h73q19.75 0 33.38 13.68Q847-300.65 847-280.82q0 19.82-13.62 33.32Q819.75-234 800-234h-73v73q0 19.75-13.68 33.37Q699.65-114 679.82-114ZM299-188q-20.75 0-34.37-13.68Q251-215.35 251-236.18q0-19.82 13.63-33.32Q278.25-283 299-283h96q19.75 0 33.38 13.68Q442-255.65 442-235.82q0 20.82-13.62 34.32Q414.75-188 395-188h-96Zm0-190q-20.75 0-34.37-13.68Q251-405.35 251-425.18q0-19.82 13.63-33.32Q278.25-472 299-472h96q19.75 0 33.38 13.68Q442-444.65 442-424.82q0 19.82-13.62 33.32Q414.75-378 395-378h-96Zm0-189q-20.75 0-34.37-13.68Q251-594.35 251-614.18 251-634 264.63-648q13.62-14 34.37-14h437q19.75 0 33.38 14.18 13.62 14.17 13.62 34 0 19.82-13.62 33.32Q755.75-567 736-567H299Zm0-190q-20.75 0-34.37-13.68Q251-784.35 251-805.18q0-19.82 13.63-33.32Q278.25-852 299-852h437q19.75 0 33.38 13.68Q783-824.65 783-804.82q0 20.82-13.62 34.32Q755.75-757 736-757H299Zm-155.18 0q-19.82 0-33.32-13.68Q97-784.35 97-805.18q0-19.82 13.68-33.32 13.67-13.5 33.5-13.5 19.82 0 33.32 13.68 13.5 13.67 13.5 33.5 0 20.82-13.68 34.32-13.67 13.5-33.5 13.5Zm0 190q-19.82 0-33.32-13.68Q97-594.35 97-614.18 97-634 110.68-648q13.67-14 33.5-14 19.82 0 33.32 14.18 13.5 14.17 13.5 34 0 19.82-13.68 33.32-13.67 13.5-33.5 13.5Zm0 189q-19.82 0-33.32-13.68Q97-405.35 97-425.18q0-19.82 13.68-33.32 13.67-13.5 33.5-13.5 19.82 0 33.32 13.68 13.5 13.67 13.5 33.5 0 19.82-13.68 33.32-13.67 13.5-33.5 13.5Zm0 190q-19.82 0-33.32-13.68Q97-215.35 97-236.18q0-19.82 13.68-33.32 13.67-13.5 33.5-13.5 19.82 0 33.32 13.68 13.5 13.67 13.5 33.5 0 20.82-13.68 34.32-13.67 13.5-33.5 13.5Z"/></svg>
